X:1
T:Ennio Morricone arr. R. Knecht
T:Gabriels Oboe
%%score 1 2 3
L:1/8
Q:1/4=72
M:4/4
K:Eb
V:1 treble nm="Ob"
V:2 treble transpose=-9 nm="Alt"
V:3 bass nm="Vc"
V:1
 z8 | z8!ff! | (Bc/B/ A/ B4-) B/B | (ef/e/ d/e/d/e/ d/ccB/)B- | B3 B ef/e/ de/d/ | c4- cedc | %6
 B/A/B- B4 (B2 | gffe) e3 B | g/f/f/e/ e4 d/e/d/e/ | c4- c(cea) | ag/g/- g4 (ec' | c'7) b | %12
!p! b8- | b6!ff! z2 | (Bc/B/ A/ B4-) BB/ | ef/e/ d/e/d/e/ d/c/c B/B/-B- |!ff! B3 B ef/e/ de/d/ | %17
 c4- cedc | B/A/B- B4 B2 | gffe e3 B | g/f/f/e/ e4 d/e/d/e/ | c4- ccea | ag/g/- g4 ec' | c'7 b | %24
 b6 ag | f6 g2 | g8- | g3 e a2 g2 | f6 e2 | e6 z2 |] %30
V:2
[K:C]!p! z4 (A2 B2 | c2 d2 e2 f2 | c4-) c2 B2 | c4 (c3 B/)(c/ | B4) c4 | (f3 e) f2 c2 | (c3 e) d4 | %7
 g4 g4 | a6 e2 | g2 f2 e3 d | g4 c2 ef |!mf! g2 f2 c2 a2 |!p! c'8 | b8 | z cde f2 B2 | e4 c3 B/c/ | %16
 d3 c/d/ c2 e2 |!mf! f2 e2 f4 | g3 f g4 | g3 e/f/ g3 e/f/ | a3 a/b/ g2 e2 | e3 e/f/ e2 f2 | %22
 g3 f/g/ a2 e2 |!ff! (agfe dc B2) | (gfed cB A2) |!mf! B6!mp! G2 | B4 AB c2 | c4 c4 | c4 B4 | %29
 c6 z2 |] %30
V:3
!p! B,,8- | B,,8!mf! | E,,4 F,,4 | G,,4 A,,4- | A,,4 G,,4 | A,,6 z2 | F,,2 F,,2 B,,2 B,,2 | %7
 E,4 D,4 | C,4 B,,4 | A,,4 A,,2 A,,2 | E,2 D,2 C,2 B,,2 | A,,2 A,,2 A,,2 A,,2 | %12
!p! B,,4 B,,2 z!mf! F,, | .B,,2 .B,,2 .B,,2 .B,,2!f! | E,,4 F,,4 | G,,4 A,,4-!mf! | A,,4 G,,4 | %17
 A,,4 A,,2 A,,2 | F,,4 B,,2 B,,2 | E,4 D,4 | C,4 B,,4 | A,,4 A,,2 A,,2 | E,2 D,2 C,2 B,,2 | %23
 A,,6- A,,B,,!f! | G,,4 A,,4 | B,,6 z2 | =B,,2 B,,2 C,2 C,2 | (C,2 B,,2) A,,4 | B,,8 | E,,6 z2 |] %30

